!!!COM: Vivaldi, Antonio Lucio
!!!CDT: 1678/03/04-1741/08/28
!!!OPR: 12 Sonatas for Violin and Basso continuo
!!!OTL: Sonata in C major, op. @{OPS}, no. @{ONM} (@{SCT})
!!!OPS: 2
!!!ONM: 6
!!!OMV: 2. Allemanda
!!!SCT: RV 1
!!!SCA: Antonio Vivaldi: Thematisch-systematisches Verzeichnis seiner Werke (Ryom-Verzeichnis)
!!!OMD: Presto
!!!key: C
**kern	**fb	**kern
*part2	*	*part1
*staff2	*	*staff1
*ICklav	*	*ICstr
*Icemba	*	*Ivioln
*I"Basso continuo	*	*I"Violino
*I'bc	*	*I'v
*>[A,A,B,B]	*>[A,A,B,B]	*>[A,A,B,B]
*>norep[A,B]	*>norep[A,B]	*>norep[A,B]
*>A	*>A	*>A
*clefF4	*	*clefG2
*k[]	*	*k[]
*C:	*	*C:
*M4/4	*	*M4/4
*met(c)	*	*met(c)
*MM144	*	*MM144
=1	=1	=1
4C/	.	(16cc/LL
.	.	16g/
.	.	16f/)
.	.	16e/JJ
4r	.	(16cc/LL
.	.	16g/
.	.	16f/)
.	.	16e/JJ
8C\L	.	8cc/L
8D\	.	8c/J
8E\	.	8r
8C\J	.	8cc\
=2	=2	=2
8G/L	.	16dd\LL
.	.	16b\
8GG/J	.	16a\
.	.	16g\JJ
8BB/L	.	16gg\LL
.	.	16dd\
8GG/J	.	16cc\
.	.	16b\JJ
8C/L	.	8ee\L
8D/J	.	8cc\J
8E/L	.	16r
.	.	16gg\LL
8C/J	.	16ff\
.	.	16ee\JJ
=3	=3	=3
8F/L	.	16aa\LL
.	.	16ff\
8BB/J	.	16ee\
.	.	16dd\JJ
8E/L	6	16gg\LL
.	.	16ee\
8AA/J	.	16dd\
.	.	16cc\JJ
8D/L	.	16ff\LL
.	.	16dd\
8GG/J	.	16cc\
.	.	16b\JJ
8C\L	.	16ee\LL
.	.	16cc\
8F\J	.	16b\
.	.	16a\JJ
!!LO:LB:g=original
=4	=4	=4
8G\L	.	16dd/LL
.	.	16b/
8F\J	.	16a/
.	.	16g/JJ
8E\L	6	16cc/LL
.	.	16e/
8F\J	.	16d/
.	.	16c/JJ
4G\	.	16G/LL
.	.	16cc/
.	.	16dd/
.	.	16cc/JJ
4GG/	.	16G/LL
.	.	16cc/
.	.	16dd/
.	.	16b/JJ
=5	=5	=5
4C/	.	4cc\
2c\	5	16r
.	.	16cc\LL
.	.	16dd\
.	.	16ee\JJ
.	4 2	16dd\LL
.	.	16b\
.	.	16a\
.	.	16g\JJ
4B\	6	16gg\LL
.	.	16dd\
.	.	16cc\
.	.	16b\JJ
=6	=6	=6
8c\L	.	8ee\L
8d\J	.	8cc\J
8e\L	.	16r
.	.	16gg\LL
8c\J	.	16ff\
.	.	16ee\JJ
8d\L	.	16ff\LL
.	.	16dd\
8G\J	.	16cc\
.	.	16b\JJ
8B\L	6	16gg\LL
.	.	16dd\
8G\J	.	16cc\
.	.	16b\JJ
!!LO:LB:g=original
=7	=7	=7
8c\L	.	16ee\LL
.	.	16cc\
8F\J	.	16b\
.	.	16a\JJ
8A\L	6	16ff\LL
.	.	16cc\
8F\J	.	16b\
.	.	16a\JJ
8BB/L	6	16dd\LL
.	.	16b\
8E/J	.	16a\
.	.	16g\JJ
8G\L	6	16ee\LL
.	.	16b\
8E\J	.	16a\
.	.	16g\JJ
=8	=8	=8
8AA/L	.	16cc/LL
.	.	16a/
8D/J	.	16g/
.	.	16f#X/JJ
8F#X\L	6	16dd/LL
.	.	16a/
8D\J	.	16g/
.	.	16f#X/JJ
8G\L	.	16b/LL
.	.	16g/
8C\J	.	16f#X/
.	.	16e/JJ
8E\L	6	16cc/LL
.	.	16g/
8C\J	.	16f#X/
.	.	16e/JJ
=9	=9	=9
8D/L	#	16a/LL
.	.	16f#X/
8BB/J	.	16e/
.	.	16d/JJ
8E/L	.	16g/LL
.	.	16B/
8BB/J	.	16A/
.	.	16G/JJ
8C/L	.	16A/LL
.	.	16g/
8GG/J	.	16B/
.	.	16g/JJ
8D/L	#	16A/LL
.	.	16g/
8DD/J	.	16A/
.	.	16f#X/JJ
=10	=10	=10
4GG/	.	16g/LL
.	.	16d/
.	.	16c/
.	.	16B/JJ
4r	.	16g/LL
.	.	16d/
.	.	16B/
.	.	16d/JJ
2GG/	.	2G/
!!LO:LB:g=original
=11:|!|:	=11:|!|:	=11:|!|:
*>B	*>B	*>B
4G\	.	16gg\LL
.	.	16dd\
.	.	16cc\
.	.	16b\JJ
4r	.	16gg\LL
.	.	16dd\
.	.	16cc\
.	.	16b\JJ
8G\L	.	8gg\L
8A\	.	8g\J
8B\	.	8r
8G\J	.	8gg\
=12	=12	=12
8d\L	#	16aa\LL
.	.	16ff#X\
8D\J	.	16ee\
.	.	16dd\JJ
8F#X\L	.	16ddd\LL
.	.	16ff#X\
8D\J	.	16ee\
.	.	16dd\JJ
8G\L	.	8bb\L
8A\J	.	8gg\J
8B\L	.	8r
8G\J	.	8bb\
=13	=13	=13
8A\L	.	16ccc\LL
.	.	16aa\
8d\J	.	16gg\
.	.	16ff#X\JJ
8G\L	.	16bb\LL
.	.	16gg\
8c\J	.	16ff#X\
.	.	16ee\JJ
8F#X\L	6#/	16aa\LL
.	.	16ff#X\
8B\J	.	16ee\
.	.	16dd#X\JJ
8E\L	.	16gg\LL
.	.	16ee\
8A\J	.	16dd#y\
.	.	16cc#X\JJ
!!LO:LB:g=original
=14	=14	=14
8BB/L	#	16ff#X\LL
.	.	16dd#X\
8D#X/J	.	16cc#X\
.	.	16b\JJ
8E\L	.	16gg\LL
.	.	16ee\
8A\J	.	16dd#y\
.	.	16cc#X\JJ
8F#X\L	6#/	16aa\LL
.	.	16ff#X\
8B\J	.	16ee\
.	.	16dd#X\JJ
8G\L	6	16bb\LL
.	.	16gg\
8c\J	.	16ff#X\
.	.	16ee\JJ
=15	=15	=15
8A\L	.	16ccc\LL
.	.	16dd#X\
8G\J	.	16ee\
.	.	16g\JJ
8F#X\L	6#/	16a\LL
.	.	16ee\
8B\J	.	16b\
.	.	16dd#X\JJ
8E\L	.	4ee\
8F#X\J	.	.
8G\L	.	8r
8E\J	.	16ee\LL
.	.	16ffn\JJ
=16	=16	=16
8e\L	.	16gg\LL
.	.	16ee\
8A\J	.	16dd\
.	.	16cc#X\JJ
8c#X\L	6	16aa\LL
.	.	16ee\
8A\J	.	16dd\
.	.	16cc#X\JJ
8d\L	.	16ff\LL
.	.	16aa\
8D\J	.	16gg\
.	.	16ff\JJ
8GG/L	-	16bb-X\LL
.	.	16ee\
8G/J	.	16ff\
.	.	16dd\JJ
=17	=17	=17
8A\L	#	16cc#X/LL
.	.	16a/
8F\J	6	16dd/
.	.	16f/JJ
8G\L	6 5 -	16e/LL
.	.	16dd/
8A\J	#	16e/
.	.	16cc#X/JJ
8D\L	.	4dd\
8E\J	.	.
8F\L	.	8r
8D\J	.	16dd\LL
.	.	16ee\JJ
!!LO:LB:g=original
=18	=18	=18
8d\L	.	16ff\LL
.	.	16dd\
8G\J	.	16ccn\
.	.	16b\JJ
8B\L	6	16gg\LL
.	.	16dd\
8G\J	.	16cc\
.	.	16b\JJ
8c\L	.	16ee\LL
.	.	16cc\
8F\J	.	16b\
.	.	16a\JJ
8A\L	6	16ff\LL
.	.	16cc\
8F\J	.	16b\
.	.	16a\JJ
=19	=19	=19
8BB/L	6	16dd\LL
.	.	16b\
8E/J	.	16a\
.	.	16g\JJ
8G\L	6	16ee\LL
.	.	16b\
8E\J	.	16a\
.	.	16g\JJ
8AA\L	.	16cc/LL
.	.	16a/
8A\J	.	16g/
.	.	16f/JJ
8B\L	6	16dd\LL
.	.	16b\
8BB\J	.	16a\
.	.	16g\JJ
=20	=20	=20
8C\L	.	16ee\LL
.	.	16cc\
8c\J	.	16b\
.	.	16a\JJ
8d\L	6	16ff\LL
.	.	16dd\
8D\J	.	16cc\
.	.	16b\JJ
8E\L	6	16gg\LL
.	.	16ee\
8e\J	.	16dd\
.	.	16cc\JJ
8f\L	6	16aa\LL
.	.	16ff\
8F\J	.	16dd\
.	.	16cc\JJ
!!LO:LB:g=original
=21	=21	=21
8G\L	.	16b/LL
.	.	16g/
8E\J	6	16cc/
.	.	16e/JJ
8F\L	6 5	16d/LL
.	.	16cc/
8G\J	.	16d/
.	.	16b/JJ
8C/L	.	4cc\
8D/J	.	.
8E\L	.	8r
8C\J	.	8g/
=22	=22	=22
8F/L	.	16a/LL
.	.	16f/
8BB/J	.	16e/
.	.	16d/JJ
8E/L	6	16g/LL
.	.	16e/
8AA/J	.	16d/
.	.	16c/JJ
8D/L	.	16f/LL
.	.	16d/
8GG/J	.	16c/
.	.	16B/JJ
8C\L	.	16e/LL
.	.	16c/
8F\J	.	16B/
.	.	16A/JJ
=23	=23	=23
8G\L	.	16d/LL
.	.	16B/
8F\J	.	16A/
.	.	16G/JJ
8E\L	6	16cc/LL
.	.	16e/
8F\J	.	16d/
.	.	16c/JJ
4G\	5 4	16G/LL
.	.	16cc/
.	.	16dd/
.	.	16cc/JJ
4GG/	3	16G/LL
.	.	16cc/
.	.	16dd/
.	.	16b/JJ
=24	=24	=24
4C/	.	16cc/LL
.	.	16g/
.	.	16f/
.	.	16e/JJ
4r	.	16cc/LL
.	.	16g/
.	.	16e/
.	.	16g/JJ
2C/;	.	2c/;
=:|!	=:|!	=:|!
*-	*-	*-
!!!SMS: RV 001/ Estienne Roger, Amsterdam [facs.]
!!!ENC: Fran Bennion; rev. 04/21 E. Correia
!!!END: 2004/11/29
!!!ONB: Converted from MuseData with musedata2hum on Sat May 11 12:07:52 2024
!!!YEM: (C) 2004, 2004 Center for Computer Assisted Research in the Humanities.
!!!system-decoration: [(s1,s2)]
!!!URL-info: https://wiki.ccarh.org/wiki/MuseData:_Antonio_Vivaldi#Op._2:_Sonate_a_violino_e_basso_per_il_cembalo
!!!URL-pdf: https://pdf.musedata.org/vivaldi-op02-no06.pdf#page=3 MuseData edition
!!!URL-pdf: http://conquest.imslp.info/files/imglnks/usimg/b/b7/IMSLP99075-PMLP183164-Vivaldi_-_Sonatas_Op2.pdf#page=22 Estienne Roger Amsterdam: Estienne Roger, No.2, n.d.[1711].
!!!URL-youtube: https://www.youtube.com/watch?v=SiijZmW9jKM&t=1749s L'Arte dell'Arco
!!!title: @{OTL}, mov. @{OMV}
!!!filter-chint: chint -mid
!!!EEV: 2024/05/11
!!!source-file: https://bitbucket.org/musedata/vivaldi/src/master/roger/op2/no06/stage2/02/01
!!!source-file: https://bitbucket.org/musedata/vivaldi/src/master/roger/op2/no06/stage2/02/02
